public/cloud-icons/azure/management/azure-center-for-sap.svg

<?xml version="1.0" encoding="UTF-8" standalone="no"?>
<!-- Generated by Microsoft Visio, SVG Export Azure Center for SAP.svg Page-1 -->

<svg
   xmlns:dc="http://purl.org/dc/elements/1.1/"
   xmlns:cc="http://creativecommons.org/ns#"
   xmlns:rdf="http://www.w3.org/1999/02/22-rdf-syntax-ns#"
   xmlns:svg="http://www.w3.org/2000/svg"
   xmlns="http://www.w3.org/2000/svg"
   xmlns:sodipodi="http://sodipodi.sourceforge.net/DTD/sodipodi-0.dtd"
   xmlns:inkscape="http://www.inkscape.org/namespaces/inkscape"
   width="0.78671998in"
   height="0.78744376in"
   viewBox="0 0 56.644076 56.695933"
   xml:space="preserve"
   class="st6"
   version="1.1"
   id="svg74"
   sodipodi:docname="Azure Center for SAP.svg"
   style="font-size:12px;overflow:visible;color-interpolation-filters:sRGB;fill:none;fill-rule:evenodd;stroke-linecap:square;stroke-miterlimit:3"
   inkscape:version="0.92.5 (2060ec1f9f, 2020-04-08)"><metadata
   id="metadata80"><rdf:RDF><cc:Work
       rdf:about=""><dc:format>image/svg+xml</dc:format><dc:type
         rdf:resource="http://purl.org/dc/dcmitype/StillImage" /></cc:Work></rdf:RDF></metadata><defs
   id="defs78" /><sodipodi:namedview
   pagecolor="#ffffff"
   bordercolor="#666666"
   borderopacity="1"
   objecttolerance="10"
   gridtolerance="10"
   guidetolerance="10"
   inkscape:pageopacity="0"
   inkscape:pageshadow="2"
   inkscape:window-width="640"
   inkscape:window-height="480"
   id="namedview76"
   showgrid="false"
   inkscape:zoom="1.4193037"
   inkscape:cx="37.762808"
   inkscape:cy="37.79065"
   inkscape:window-x="0"
   inkscape:window-y="0"
   inkscape:window-maximized="0"
   inkscape:current-layer="svg74" />
	<style
   type="text/css"
   id="style2">
	<![CDATA[
		.st1 {fill:#32bedd;stroke:none;stroke-linecap:butt;stroke-width:34}
		.st2 {fill:#9cebff;stroke:none;stroke-linecap:butt;stroke-width:34}
		.st3 {fill:#50e6ff;stroke:none;stroke-linecap:butt;stroke-width:34}
		.st4 {fill:#005ba1;stroke:none;stroke-linecap:butt;stroke-width:34}
		.st5 {fill:#00ffff;stroke:none;stroke-linecap:butt;stroke-width:34}
		.st6 {fill:none;fill-rule:evenodd;font-size:12px;overflow:visible;stroke-linecap:square;stroke-miterlimit:3}
	]]>
	</style>

	<g
   id="g72"
   transform="translate(-33.997276,-34.001701)">
		<title
   id="title4">Page-1</title>
		<g
   id="group13913-1"
   transform="translate(37.3029,-34.0157)">
			<title
   id="title6">Azure Center for SAP.13913</title>
			<g
   id="group13914-2">
				<title
   id="title8">Sheet.13914</title>
				<g
   id="shape13915-3"
   transform="translate(24.5546,-28.7949)">
					<title
   id="title10">Sheet.13915</title>
					<path
   d="m 7.74,111.23 v 8.97 L 0,124.71 v -8.98 z"
   class="st1"
   id="path12"
   inkscape:connector-curvature="0"
   style="fill:#32bedd;stroke:none;stroke-width:34;stroke-linecap:butt" />
				</g>
				<g
   id="shape13916-5"
   transform="translate(16.8116,-37.765)">
					<title
   id="title15">Sheet.13916</title>
					<path
   d="M 15.48,120.2 7.74,124.71 0,120.19 7.74,115.69 Z"
   class="st2"
   id="path17"
   inkscape:connector-curvature="0"
   style="fill:#9cebff;stroke:none;stroke-width:34;stroke-linecap:butt" />
				</g>
				<g
   id="shape13917-7"
   transform="translate(16.8116,-28.7949)">
					<title
   id="title20">Sheet.13917</title>
					<path
   d="m 7.74,115.74 v 8.97 L 0,120.2 v -8.98 z"
   class="st3"
   id="path22"
   inkscape:connector-curvature="0"
   style="fill:#50e6ff;stroke:none;stroke-width:34;stroke-linecap:butt" />
				</g>
				<g
   id="shape13918-9"
   transform="translate(15.3362,-12.8603)">
					<title
   id="title25">Sheet.13918</title>
					<path
   d="m 7.73,111.24 v 8.96 L 0,124.71 v -8.98 z"
   class="st1"
   id="path27"
   inkscape:connector-curvature="0"
   style="fill:#32bedd;stroke:none;stroke-width:34;stroke-linecap:butt" />
				</g>
				<g
   id="shape13919-11"
   transform="translate(7.59318,-21.8271)">
					<title
   id="title30">Sheet.13919</title>
					<path
   d="M 15.48,120.2 7.74,124.71 0,120.19 7.74,115.69 Z"
   class="st2"
   id="path32"
   inkscape:connector-curvature="0"
   style="fill:#9cebff;stroke:none;stroke-width:34;stroke-linecap:butt" />
				</g>
				<g
   id="shape13920-13"
   transform="translate(7.59318,-12.8603)">
					<title
   id="title35">Sheet.13920</title>
					<path
   d="m 7.74,115.74 v 8.97 L 0,120.2 v -8.98 z"
   class="st3"
   id="path37"
   inkscape:connector-curvature="0"
   style="fill:#50e6ff;stroke:none;stroke-width:34;stroke-linecap:butt" />
				</g>
				<g
   id="shape13921-15"
   transform="translate(34.0694,-12.8336)">
					<title
   id="title40">Sheet.13921</title>
					<path
   d="m 7.73,111.24 v 8.96 L 0,124.71 v -8.98 z"
   class="st1"
   id="path42"
   inkscape:connector-curvature="0"
   style="fill:#32bedd;stroke:none;stroke-width:34;stroke-linecap:butt" />
				</g>
				<g
   id="shape13922-17"
   transform="translate(26.323,-21.8004)">
					<title
   id="title45">Sheet.13922</title>
					<path
   d="M 15.48,120.2 7.75,124.71 0,120.19 7.75,115.69 Z"
   class="st2"
   id="path47"
   inkscape:connector-curvature="0"
   style="fill:#9cebff;stroke:none;stroke-width:34;stroke-linecap:butt" />
				</g>
				<g
   id="shape13923-19"
   transform="translate(26.323,-12.8336)">
					<title
   id="title50">Sheet.13923</title>
					<path
   d="m 7.75,115.74 v 8.97 L 0,120.2 v -8.98 z"
   class="st3"
   id="path52"
   inkscape:connector-curvature="0"
   style="fill:#50e6ff;stroke:none;stroke-width:34;stroke-linecap:butt" />
				</g>
				<g
   id="shape13924-21"
   transform="translate(26.6994,-9.52991)">
					<title
   id="title55">Sheet.13924</title>
					<path
   d="m 0.32,77.59 1.79,1 0.72,0.4 a 0.959139,0.96108 0 0 1 0.033303,1.66854 L 2.15,81.09 0,82.39 a 23.5022,23.5498 0 0 1 17.11,37.65 0.526194,0.527259 -180 0 0 -0.0766,0.15684 L 16.14,123.53 a 0.955808,0.957743 -180 0 0 1.17228,1.17465 L 19.98,123.99 A 0.459587,0.460518 -180 0 0 20.229776,123.82982 28.2846,28.3419 -180 0 0 0.32,77.59 Z"
   class="st4"
   id="path57"
   inkscape:connector-curvature="0"
   style="fill:#005ba1;stroke:none;stroke-width:34;stroke-linecap:butt" />
				</g>
				<g
   id="shape13925-23"
   transform="translate(1.55194)">
					<title
   id="title60">Sheet.13925</title>
					<path
   d="m 41.23,116.98 -0.8,0.21 a 0.955808,0.957743 0 0 1 -1.16895,-1.17465 L 39.47,115.22 40.06,113.01 A 23.5122,23.5598 0 0 1 3.9,109.44 0.459587,0.460518 -180 0 0 3.726822,109.28316 L 1.39,108.09 a 0.959139,0.96108 -180 0 0 -1.39208,0.90435 L 0.17,112.33 A 0.516203,0.517248 -180 0 0 0.2599192,112.58696 28.5111,28.5688 -180 0 0 4.28,117.19 a 28.2413,28.2985 -180 0 0 39.18,-0.8 z"
   class="st5"
   id="path62"
   inkscape:connector-curvature="0"
   style="fill:#00ffff;stroke:none;stroke-width:34;stroke-linecap:butt" />
				</g>
				<g
   id="shape13926-25"
   transform="translate(0,-14.7625)">
					<title
   id="title65">Sheet.13926</title>
					<path
   d="M 0.04,122.17 0,121.34 a 0.955808,0.957743 0 0 1 1.39208,-0.90101 L 2.13,120.82 4.04,121.8 A 23.5189,23.5665 0 0 1 23.88,87.57 0.456257,0.45718 -180 0 0 24.096472,87.50326 L 26.7,85.93 A 0.955808,0.957743 -180 0 0 26.6667,84.26146 L 24.08,82.84 A 0.502882,0.5039 -180 0 0 23.823564,82.779933 28.2846,28.3419 -180 0 0 0.17,124.71 Z"
   class="st1"
   id="path67"
   inkscape:connector-curvature="0"
   style="fill:#32bedd;stroke:none;stroke-width:34;stroke-linecap:butt" />
				</g>
			</g>
		</g>
	</g>
</svg>

<svg xmlns="http://www.w3.org/2000/svg" xml:space="preserve" width="75.525" height="75.595" style="font-size:12px;overflow:visible;color-interpolation-filters:sRGB;fill-rule:evenodd;stroke-linecap:square;stroke-miterlimit:3" viewBox="0 0 56.644 56.696"><g transform="translate(-33.997 -34.002)"><title>Page-1</title><g transform="translate(37.303 -34.016)"><title>Azure Center for SAP.13913</title><title>Sheet.13914</title><g transform="translate(24.555 -28.795)"><title>Sheet.13915</title><path d="M7.74 111.23v8.97L0 124.71v-8.98z" style="fill:#32bedd;stroke:none;stroke-width:34;stroke-linecap:butt"/></g><g transform="translate(16.812 -37.765)"><title>Sheet.13916</title><path d="m15.48 120.2-7.74 4.51L0 120.19l7.74-4.5Z" style="fill:#9cebff;stroke:none;stroke-width:34;stroke-linecap:butt"/></g><g transform="translate(16.812 -28.795)"><title>Sheet.13917</title><path d="M7.74 115.74v8.97L0 120.2v-8.98z" style="fill:#50e6ff;stroke:none;stroke-width:34;stroke-linecap:butt"/></g><g transform="translate(15.336 -12.86)"><title>Sheet.13918</title><path d="M7.73 111.24v8.96L0 124.71v-8.98z" style="fill:#32bedd;stroke:none;stroke-width:34;stroke-linecap:butt"/></g><g transform="translate(7.593 -21.827)"><title>Sheet.13919</title><path d="m15.48 120.2-7.74 4.51L0 120.19l7.74-4.5Z" style="fill:#9cebff;stroke:none;stroke-width:34;stroke-linecap:butt"/></g><g transform="translate(7.593 -12.86)"><title>Sheet.13920</title><path d="M7.74 115.74v8.97L0 120.2v-8.98z" style="fill:#50e6ff;stroke:none;stroke-width:34;stroke-linecap:butt"/></g><g transform="translate(34.07 -12.834)"><title>Sheet.13921</title><path d="M7.73 111.24v8.96L0 124.71v-8.98z" style="fill:#32bedd;stroke:none;stroke-width:34;stroke-linecap:butt"/></g><g transform="translate(26.323 -21.8)"><title>Sheet.13922</title><path d="m15.48 120.2-7.73 4.51L0 120.19l7.75-4.5Z" style="fill:#9cebff;stroke:none;stroke-width:34;stroke-linecap:butt"/></g><g transform="translate(26.323 -12.834)"><title>Sheet.13923</title><path d="M7.75 115.74v8.97L0 120.2v-8.98z" style="fill:#50e6ff;stroke:none;stroke-width:34;stroke-linecap:butt"/></g><g transform="translate(26.7 -9.53)"><title>Sheet.13924</title><path d="m.32 77.59 1.79 1 .72.4a.96.961 0 0 1 .033 1.669l-.713.431L0 82.39a23.502 23.55 0 0 1 17.11 37.65.526.527-180 0 0-.077.157l-.893 3.333a.956.958-180 0 0 1.172 1.175l2.668-.715a.46.46-180 0 0 .25-.16A28.285 28.342-180 0 0 .32 77.59" style="fill:#005ba1;stroke:none;stroke-width:34;stroke-linecap:butt"/></g><g transform="translate(1.552)"><title>Sheet.13925</title><path d="m41.23 116.98-.8.21a.956.958 0 0 1-1.169-1.175l.209-.795.59-2.21a23.512 23.56 0 0 1-36.16-3.57.46.46-180 0 0-.173-.157L1.39 108.09a.96.961-180 0 0-1.392.904l.172 3.336a.516.517-180 0 0 .09.257 28.511 28.569-180 0 0 4.02 4.603 28.241 28.299-180 0 0 39.18-.8z" style="fill:#0ff;stroke:none;stroke-width:34;stroke-linecap:butt"/></g><g transform="translate(0 -14.762)"><title>Sheet.13926</title><path d="m.04 122.17-.04-.83a.956.958 0 0 1 1.392-.901l.738.381 1.91.98a23.519 23.567 0 0 1 19.84-34.23.456.457-180 0 0 .216-.067L26.7 85.93a.956.958-180 0 0-.033-1.669L24.08 82.84a.503.504-180 0 0-.256-.06A28.285 28.342-180 0 0 .17 124.71Z" style="fill:#32bedd;stroke:none;stroke-width:34;stroke-linecap:butt"/></g></g></g></svg>
